packages/icons/svg/Device_Desktop_64px.svg

<svg xmlns="http://www.w3.org/2000/svg" viewBox="0 0 64 64"><path d="M57 9H7a2 2 0 00-2 2v38a2 2 0 002 2h14v5h-6.5a1.5 1.5 0 000 3h35a1.5 1.5 0 000-3H43v-5h14a2 2 0 002-2V11a2 2 0 00-2-2zm-1 3v28H8V12zM41 56H23v-5h18zM8 48v-5h48v5z"/></svg>

<svg xmlns="http://www.w3.org/2000/svg" viewBox="0 0 64 64"><defs></defs><g id="Icon"><path  d="M57,9H7a2,2,0,0,0-2,2V49a2,2,0,0,0,2,2H21v5H14.5a1.5,1.5,0,0,0,0,3h35a1.5,1.5,0,0,0,0-3H43V51H57a2,2,0,0,0,2-2V11A2,2,0,0,0,57,9Zm-1,3V40H8V12ZM41,56H23V51H41ZM8,48V43H56v5Z"/></g></svg>
